data/styles/clear/style-night/symbols/bus-m.svg

<svg height="24" viewBox="0 0 24 24" width="24"><g fill="none" fill-rule="evenodd"><rect fill="#fff" height="24" opacity=".4" rx="2.5" width="24"/><rect fill="#204366" height="22" rx="2" width="22" x="1" y="1"/><path d="m7.99079514 6c-1.09258276 0-1.99079514.89112225-1.99079514 1.99037724v2.97345036l-.12261963.0657453c-.48215389.2585176-.87738037.9220754-.87738037 1.4792119v3.4824304c0 .5586967.44715386 1.0087848.99874609 1.0087848h7.03669831c-.0233584-.1633015-.0354444-.3302393-.0354444-.5 0-1.9329966 1.5670034-3.5 3.5-3.5s3.5 1.5670034 3.5 3.5c0 .1697607-.012086.3366985-.0354444.5h3.0354444v-5h-.9970707c-.5539025 0-1.0029293-.4433532-1.0029293-1.0093689v-1.9812622c0-.55745905.4378814-1.0093689 1.0029293-1.0093689h.9970707v-2zm6.00920486 3.0093689c0-.55745905.4437166-1.0093689.9998075-1.0093689h3.000385c.5521784 0 .9998075.44335318.9998075 1.0093689v1.9812622c0 .5574591-.4437166 1.0093689-.9998075 1.0093689h-3.000385c-.5521784 0-.9998075-.4433532-.9998075-1.0093689zm-6-.01233876c0-.55064454.44335318-.99703014 1.0093689-.99703014h1.9812622c.5574591 0 1.0093689.45303631 1.0093689.99703014v7.00296986h-4zm8.5 10.00296986c1.3807119 0 2.5-1.1192881 2.5-2.5s-1.1192881-2.5-2.5-2.5-2.5 1.1192881-2.5 2.5 1.1192881 2.5 2.5 2.5z" fill="#fff" opacity=".6"/></g></svg>

<svg width="24" height="24" viewBox="0 0 24 24">
  <g fill="none" fill-rule="evenodd">
    <rect width="24" height="24" fill="#FFF" opacity=".4" rx="2.5"/>
    <rect width="22" height="22" x="1" y="1" fill="#1F4366" rx="2"/>
    <path fill="#FFF" d="M7.99079514,6 C6.89821238,6 6,6.89112225 6,7.99037724 L6,10.9638276 L5.87738037,11.0295729 C5.39522648,11.2880905 5,11.9516483 5,12.5087848 L5,15.9912152 C5,16.5499119 5.44715386,17 5.99874609,17 L13.0354444,17 C13.012086,16.8366985 13,16.6697607 13,16.5 C13,14.5670034 14.5670034,13 16.5,13 C18.4329966,13 20,14.5670034 20,16.5 C20,16.6697607 19.987914,16.8366985 19.9645556,17 L23,17 L23,12 L22.0029293,12 C21.4490268,12 21,11.5566468 21,10.9906311 L21,9.0093689 C21,8.45190985 21.4378814,8 22.0029293,8 L23,8 L23,6 L7.99079514,6 Z M14,9.0093689 C14,8.45190985 14.4437166,8 14.9998075,8 L18.0001925,8 C18.5523709,8 19,8.44335318 19,9.0093689 L19,10.9906311 C19,11.5480902 18.5562834,12 18.0001925,12 L14.9998075,12 C14.4476291,12 14,11.5566468 14,10.9906311 L14,9.0093689 L14,9.0093689 Z M8,8.99703014 C8,8.4463856 8.44335318,8 9.0093689,8 L10.9906311,8 C11.5480902,8 12,8.45303631 12,8.99703014 L12,16 L8,16 L8,8.99703014 L8,8.99703014 Z M16.5,19 C17.8807119,19 19,17.8807119 19,16.5 C19,15.1192881 17.8807119,14 16.5,14 C15.1192881,14 14,15.1192881 14,16.5 C14,17.8807119 15.1192881,19 16.5,19 L16.5,19 Z" opacity=".6"/>
  </g>
</svg>
